X:173
T:The Taylor's March.
M:6/8
L:1/8
K:AMix
A/G/|:F>AA     f>ef   |dGA     f>ef|[1 dAA  A2G:|\
                                                   [2 d>AA A2 ||
g   |(f/g/)af (g/a/)ba|Tf>ed Bde|[1  f>ef     aef |   dAA  A2 :|\
                                 [2 (f/g/)ag Tf2e |   d<AA A2 ||
